images/nearpad.svg

<svg height="250" viewBox="0 0 250 250" width="250" xmlns="http://www.w3.org/2000/svg"><path d="m124.882812 249.765625c68.972657 0 124.882813-55.910156 124.882813-124.882813 0-68.96875-55.910156-124.882812-124.882813-124.882812-68.96875 0-124.882812 55.914062-124.882812 124.882812 0 68.972657 55.914062 124.882813 124.882812 124.882813zm0 0" fill="#6366f1"/><path d="m124.878906 226.46875c56.105469 0 101.585938-45.480469 101.585938-101.585938 0-56.101562-45.480469-101.582031-101.585938-101.582031-56.101562 0-101.582031 45.480469-101.582031 101.582031 0 56.105469 45.480469 101.585938 101.582031 101.585938zm0 0" fill="#ece9ff"/><path d="m132.566406 178.238281h-46.597656v-106.710937h46.597656c29.589844 0 53.355469 24 53.355469 53.355468-.234375 29.589844-24 53.355469-53.355469 53.355469zm0 0" fill="#a5b4fc"/><path d="m110.90625 178.238281h-25.160156v-106.710937h24.929687c29.589844 0 53.351563 24 53.351563 53.355468.234375 29.589844-23.761719 53.355469-53.121094 53.355469zm0 0" fill="#6366f1"/><path d="m86.898438 178.238281h-.929688v-106.710937h.929688c29.589843 0 53.125 24 53.125 53.355468 0 29.589844-23.765626 53.355469-53.125 53.355469zm0 0" fill="#4338ca"/></svg>

<svg xmlns="http://www.w3.org/2000/svg" xmlns:xlink="http://www.w3.org/1999/xlink" width="250px" height="250px" viewBox="0 0 250 250" version="1.1">
<g id="surface1">
<path style=" stroke:none;fill-rule:nonzero;fill:rgb(38.82353%,40.000001%,94.509804%);fill-opacity:1;" d="M 124.882812 249.765625 C 193.855469 249.765625 249.765625 193.855469 249.765625 124.882812 C 249.765625 55.914062 193.855469 0 124.882812 0 C 55.914062 0 0 55.914062 0 124.882812 C 0 193.855469 55.914062 249.765625 124.882812 249.765625 Z M 124.882812 249.765625 "/>
<path style=" stroke:none;fill-rule:nonzero;fill:rgb(92.54902%,91.37255%,100%);fill-opacity:1;" d="M 124.878906 226.46875 C 180.984375 226.46875 226.464844 180.988281 226.464844 124.882812 C 226.464844 68.78125 180.984375 23.300781 124.878906 23.300781 C 68.777344 23.300781 23.296875 68.78125 23.296875 124.882812 C 23.296875 180.988281 68.777344 226.46875 124.878906 226.46875 Z M 124.878906 226.46875 "/>
<path style=" stroke:none;fill-rule:nonzero;fill:rgb(64.705884%,70.588237%,98.823529%);fill-opacity:1;" d="M 132.566406 178.238281 L 85.96875 178.238281 L 85.96875 71.527344 L 132.566406 71.527344 C 162.15625 71.527344 185.921875 95.527344 185.921875 124.882812 C 185.6875 154.472656 161.921875 178.238281 132.566406 178.238281 Z M 132.566406 178.238281 "/>
<path style=" stroke:none;fill-rule:nonzero;fill:rgb(38.82353%,40.000001%,94.509804%);fill-opacity:1;" d="M 110.90625 178.238281 L 85.746094 178.238281 L 85.746094 71.527344 L 110.675781 71.527344 C 140.265625 71.527344 164.027344 95.527344 164.027344 124.882812 C 164.261719 154.472656 140.265625 178.238281 110.90625 178.238281 Z M 110.90625 178.238281 "/>
<path style=" stroke:none;fill-rule:nonzero;fill:rgb(26.274511%,21.960784%,79.215688%);fill-opacity:1;" d="M 86.898438 178.238281 L 85.96875 178.238281 L 85.96875 71.527344 L 86.898438 71.527344 C 116.488281 71.527344 140.023438 95.527344 140.023438 124.882812 C 140.023438 154.472656 116.257812 178.238281 86.898438 178.238281 Z M 86.898438 178.238281 "/>
</g>
</svg>
